X:421
T:La Cinquantaine
T:Golden Wedding
Z:Jack Campin, http://www.campin.me.uk/
F:Jack Campin's Nine-Note Tunebook
% last edit 03-02-2013
C:Jean Gabriel Marie (18521928)
M:4/4
L:1/8
Q:1/2=84
K:DMin
F2|D2 A2 A2 A2|A2 GA B4   |    D2 A2 A2 A2|A2 GA B4   |
   d2 cB A2 G2|F2 ED E2 F2|[1 TE6       D2|E6        :|\
                           [2 TE6       F2|D6        ||
z2|D2 c2 c2 c2|c2 Bc d2 A2|    B3  c dc`BA|G6       z2|
   C2 B2 B2 B2|B2 AB c2 G2|    A3  B cB`AG|F8         |
   E2 A2 A2 E2|FG`FE D2 F2|    E2 A2 A2 E2|FG`FE D2 F2|
   E2 A4    F2|E2 A4    F2|    E2 z2 A4-  |A6       A2|
   D2 A2 A2 A2|A2 GA B4   |    D2 A2 A2 A2|A2 GA B4   |
   d2 cB A2 G2|F2 ED E2 F2|   TE6       F2|D6        |]

